pieces/companion/qb.svg

<svg viewBox="0 0 64 64" xmlns="http://www.w3.org/2000/svg"><g transform="translate(0 -16)"><path d="m22.322 27.775c-.16354-3.1879 1.1407-3.6123 3.2344-1.1459 1.971 1.8795.22986 2.5492 1.4432 4.7022 1.4676 3.2199 3.0656 6.3788 4.5599 9.5868 1.6187-3.3115 3.3847-6.5507 4.9538-9.8857 1.0778-2.2462.77818-3.5765 3.127-5.1991 2.2728-1.7606.93681-2.7589.78514.13212.25921 2.0698.57618 2.9663.89099 5.1832 1.3273 5.2652 2.5244 10.562 3.7998 15.84 2.4806-1.9125 4.9646-3.8207 7.4294-5.7538.33575-1.5198 1.5449-.06302 3.1215-.97226 2.167-1.6146.17101-2.5317-.3265.11805-.18283 1.8531 1.7682 1.997.38018 2.7379-1.7902 4.2031-3.961 8.2414-5.6251 12.496-.91114 4.8096-1.0257 9.7414-1.6309 14.599-6.444 3.994-14.343 4.274-21.689 3.722-4.016-.274-8.034-1.323-11.363-3.659-.677-4.813-.981-9.684-1.865-14.462-1.603-4.299-3.6957-8.4-5.4232-12.651-1.7311-.706-.8261-2.595-.4272-4.847.26161-3.2197-.11002-2.272.99945.73124.0387.79118 2.3284 1.5439 2.3672 2.3351 2.3043 1.8828 4.6224 3.7486 6.9389 5.6167 2.1495-7.5629 3.3986-13.066 4.32-19.225z"/><g fill="#fff"><path d="m20.903 53.561c8.0738-1.6222 16.822-1.8186 24.622 1.1195 1.5432.32639 1.5363 2.0881 2.0683 3.2539-4.7643-.26967-9.4511-1.4039-14.243-1.3361-5.7691-.26774-11.48.62026-17.171 1.4034-1.4384-3.1483 2.5988-3.7638 4.7243-4.4406z" stroke="#fff" stroke-miterlimit="10" stroke-width=".092496"/><path d="m20.903 53.561c8.0738-1.6222 16.822-1.8186 24.622 1.1195 1.5432.32639 1.5363 2.0881 2.0683 3.2539-4.7643-.26967-9.4511-1.4039-14.243-1.3361-5.7691-.26774-11.48.62026-17.171 1.4034-1.4384-3.1483 2.5988-3.7638 4.7243-4.4406z"/><path d="m29.14 58.916c1.8988-.77806 4.8749-.93556 5.771 1.3565-.84163 3.2957-8.5952 2.0251-5.771-1.3565z" stroke="#fff" stroke-miterlimit="10" stroke-width=".092496"/><path d="m29.14 58.916c1.8988-.77806 4.8749-.93556 5.771 1.3565-.84163 3.2957-8.5952 2.0251-5.771-1.3565z"/><path d="m16.478 62.118c1.4183-.96308 3.0154-.83363 4.5257-.13786-1.3158.55072-4.461 3.0227-4.5257.13786z" stroke="#fff" stroke-miterlimit="10" stroke-width=".092496"/><path d="m16.478 62.118c1.4183-.96308 3.0154-.83363 4.5257-.13786-1.3158.55072-4.461 3.0227-4.5257.13786z"/><path d="m42.378 62.011c1.8997-1.193 3.808-.47688 5.1011 1.1971-1.8479.47047-3.5902-.14153-5.1011-1.1971z" stroke="#fff" stroke-miterlimit="10" stroke-width=".092496"/><path d="m42.378 62.011c1.8997-1.193 3.808-.47688 5.1011 1.1971-1.8479.47047-3.5902-.14153-5.1011-1.1971z"/><path d="m20.509 65.256c6.2109-1.712 12.828-1.5053 19.169-.70693 2.4315.39009 6.2399 1.1585 5.4226 4.497-8.6934-3.0797-18.402-3.1077-27.086.01963-.41721-1.8735.66888-3.4229 2.4943-3.8097z" stroke="#fff" stroke-miterlimit="10" stroke-width=".092496"/><path d="m20.509 65.256c6.2109-1.712 12.828-1.5053 19.169-.70693 2.4315.39009 6.2399 1.1585 5.4226 4.497-8.6934-3.0797-18.402-3.1077-27.086.01963-.41721-1.8735.66888-3.4229 2.4943-3.8097z"/></g><g fill-rule="evenodd"><path d="m12.5 12.5a4.8214 3.75 0 1 1 -.000255-.03857" transform="matrix(.74352 0 0 .90381 2.3267 28.591)"/><path d="m12.5 12.5a4.8214 3.75 0 1 1 -.000316-.04296" transform="matrix(.74352 0 0 .90381 50.255 28.76)"/><path d="m12.5 12.5a4.8214 3.75 0 1 1 -.000087-.02254" transform="matrix(.83815 0 0 1.0255 17.263 13.846)"/><path d="m12.5 12.5a4.8214 3.75 0 1 1 -.000227-.03637" transform="matrix(.83815 0 0 1.0255 33.261 12.877)"/></g></g><path d="m25.131399 57.642877c-2.353135-.30772-4.867921-1.002769-6.756389-1.867362-2.956786-1.353695-2.794824-1.013085-3.555447-7.47721-.942759-8.012-1.040958-8.434896-3.01831-12.998446-.97381-2.247466-2.1482165-4.972933-2.6097927-6.056595-.7655441-1.797302-.9275202-1.99407-1.84481-2.241071-1.3695404-.368778-2.6822435-1.891155-2.6822435-3.110668 0-2.014737 2.6962161-3.795055 4.7306224-3.123641 1.4968398.494002 1.9098938 1.178221 1.9401148 3.213776l.02667 1.796345 3.300513 2.690029c1.815283 1.479517 3.356967 2.633577 3.425965 2.564579.242726-.242726 3.070704-11.783073 3.538915-14.441518l.473814-2.690261-.650509-.526206c-1.721097-1.392219-2.061861-3.129485-.887584-4.5250348 1.589551-1.8890739 4.646556-2.5393404 5.925469-1.2604276 1.303227 1.3032268 1.493581 4.0760414.38771 5.6476384-.50901.723374-.508962.755843.003 2.033898.28613.714334 1.458772 3.251332 2.60587 5.637773l2.085632 4.338983 2.532046-5.01695c1.392627-2.759322 2.737245-5.613617 2.988041-6.342879.420339-1.222247.421499-1.345234.01486-1.5728-.663989-.371588-1.25468-1.696682-1.25468-2.8146221 0-.7893386.21184-1.2063643 1.02678-2.0213043 2.391195-2.391195 5.771173-1.8628091 6.548431 1.0237043.520524 1.9330781-.134291 3.7788031-1.611663 4.5427811-.446053.230664-.811005.61662-.811005.857681 0 .631414 3.852049 16.727804 4.062443 16.975554.09689.11409 1.815694-1.070101 3.819569-2.631536 3.563957-2.777061 3.643957-2.862516 3.66838-3.918486.08038-3.475473 4.955772-4.882914 6.50912-1.879071 1.097716 2.122751-.331086 4.831826-2.548375 4.831826h-1.022676l-1.459292 3.186441c-4.545701 9.925784-4.263743 8.935097-5.14761 18.086516-.601689 6.229809-.377817 5.807829-3.813763 7.188589-2.362478.94938-4.521017 1.520306-7.18644 1.900797-2.196258.313513-10.353646.31299-12.753347-.000814v-.000008zm-.534789-6.148423c1.736311-.328252 3.810282-.457885 7.186441-.449182 4.919612.01269 7.750994.420369 11.79661 1.698582l1.627119.514088.08687-.965869c.170269-1.893114-1.26169-3.009502-4.832635-3.767631-3.342796-.709695-14.307023-.71357-17.627119-.0062-1.267796.270101-2.732203.69722-3.254237.949152-1.106325.533912-2.03754 2.171471-1.791741 3.150812l.160495.639466 2.103759-.650885c1.157067-.35798 3.202063-.858517 4.544436-1.112296zm-4.887364-4.608575c.823644-.403951 1.497534-.822318 1.497534-.929703 0-.107384-.643473-.339249-1.42994-.515251-1.197652-.268025-1.59413-.251404-2.440678.102308-1.045572.436867-1.314006 1.122991-.685315 1.751682.510489.51049 1.435873.386726 3.058399-.409036zm27.531432.45123c.340485-.230118.258644-.40215-.50218-1.05559-1.084133-.931114-2.336342-1.218563-3.516391-.807195-1.091452.38048-1.087634.659881.01681 1.231013 1.71933.889101 3.260908 1.132477 4.001754.631772zm-12.819447-1.960499c.614246-.614245.685974-.836398.467433-1.447718-.141985-.397171-.68337-.949413-1.203078-1.227205-2.599399-1.389424-6.348717.354362-5.043838 2.34586.638853.97501 1.375454 1.224003 3.351836 1.133012 1.425353-.06562 1.820019-.19632 2.427647-.803949zm-13.485638-3.885006c1.715254-.23607 5.80339-.493068 9.084746-.57111 5.757887-.136941 8.985928.08351 16.745763 1.143598.559322.07641 1.016949.08105 1.016949.0103 0-.07074-.250449-.798009-.556553-1.616143-.529305-1.414699-.631737-1.515651-2.092353-2.062137-5.703449-2.133937-14.076616-2.713191-21.486687-1.486446-5.665541.937933-7.864407 2.031134-7.864407 3.909917 0 1.260062.154264 1.419642 1.200947 1.242335.458123-.07761 2.236341-.334248 3.951595-.570319z" fill="#333" stroke="#000" stroke-width=".987802"/></svg>

<svg width="64" height="64" viewBox="0 0 64 64" fill="none" xmlns="http://www.w3.org/2000/svg">
<path d="M22.322 11.775C22.1585 8.5871 23.4627 8.1627 25.5564 10.6291C27.5274 12.5086 25.7863 13.1783 26.9996 15.3313C28.4672 18.5512 30.0652 21.7101 31.5595 24.9181C33.1782 21.6066 34.9442 18.3674 36.5133 15.0324C37.5911 12.7862 37.2915 11.4559 39.6403 9.8333C41.9131 8.0727 40.5771 7.0744 40.4254 9.96542C40.6847 12.0352 41.0016 12.9317 41.3164 15.1486C42.6437 20.4138 43.8408 25.7106 45.1162 30.9886C47.5968 29.0761 50.0808 27.1679 52.5456 25.2348C52.8814 23.715 54.0905 25.1718 55.6671 24.2626C57.8341 22.648 55.8381 21.7309 55.3406 24.3806C55.1578 26.2337 57.1088 26.3776 55.7208 27.1185C53.9306 31.3216 51.7598 35.3599 50.0957 39.6145C49.1846 44.4241 49.07 49.3559 48.4648 54.2135C42.0208 58.2075 34.1218 58.4875 26.7758 57.9355C22.7598 57.6615 18.7418 56.6125 15.4128 54.2765C14.7358 49.4635 14.4318 44.5925 13.5478 39.8145C11.9448 35.5155 9.85211 31.4145 8.12461 27.1635C6.39351 26.4575 7.29851 24.5685 7.69741 22.3165C7.95902 19.0968 7.58739 20.0445 8.69686 23.0477C8.73556 23.8389 11.0253 24.5917 11.0641 25.3829C13.3684 27.2657 15.6865 29.1314 18.003 30.9995C20.1525 23.4366 21.4016 17.9335 22.323 11.7745L22.322 11.775Z" fill="black"/>
<path d="M20.903 37.561C28.9768 35.9388 37.725 35.7424 45.525 38.6805C47.0682 39.0069 47.0613 40.7686 47.5933 41.9344C42.829 41.6647 38.1422 40.5305 33.3503 40.5983C27.5812 40.3306 21.8703 41.2186 16.1793 42.0017C14.7409 38.8534 18.7781 38.2379 20.9036 37.5611L20.903 37.561Z" fill="white" stroke="white" stroke-width="0.092496" stroke-miterlimit="10"/>
<path d="M20.903 37.561C28.9768 35.9388 37.725 35.7424 45.525 38.6805C47.0682 39.0069 47.0613 40.7686 47.5933 41.9344C42.829 41.6647 38.1422 40.5305 33.3503 40.5983C27.5812 40.3306 21.8703 41.2186 16.1793 42.0017C14.7409 38.8534 18.7781 38.2379 20.9036 37.5611L20.903 37.561Z" fill="white"/>
<path d="M29.14 42.916C31.0388 42.1379 34.0149 41.9804 34.911 44.2725C34.0694 47.5682 26.3158 46.2976 29.14 42.916Z" fill="white" stroke="white" stroke-width="0.092496" stroke-miterlimit="10"/>
<path d="M29.14 42.916C31.0388 42.1379 34.0149 41.9804 34.911 44.2725C34.0694 47.5682 26.3158 46.2976 29.14 42.916Z" fill="white"/>
<path d="M16.478 46.118C17.8963 45.1549 19.4934 45.2844 21.0037 45.9801C19.6879 46.5308 16.5427 49.0028 16.478 46.118Z" fill="white" stroke="white" stroke-width="0.092496" stroke-miterlimit="10"/>
<path d="M16.478 46.118C17.8963 45.1549 19.4934 45.2844 21.0037 45.9801C19.6879 46.5308 16.5427 49.0028 16.478 46.118Z" fill="white"/>
<path d="M42.378 46.011C44.2777 44.818 46.186 45.5341 47.4791 47.2081C45.6312 47.6786 43.8889 47.0666 42.378 46.011Z" fill="white" stroke="white" stroke-width="0.092496" stroke-miterlimit="10"/>
<path d="M42.378 46.011C44.2777 44.818 46.186 45.5341 47.4791 47.2081C45.6312 47.6786 43.8889 47.0666 42.378 46.011Z" fill="white"/>
<path d="M20.509 49.256C26.7199 47.544 33.337 47.7507 39.678 48.5491C42.1095 48.9392 45.9179 49.7076 45.1006 53.0461C36.4072 49.9664 26.6986 49.9384 18.0146 53.0657C17.5974 51.1922 18.6835 49.6428 20.5089 49.256H20.509Z" fill="white" stroke="white" stroke-width="0.092496" stroke-miterlimit="10"/>
<path d="M20.509 49.256C26.7199 47.544 33.337 47.7507 39.678 48.5491C42.1095 48.9392 45.9179 49.7076 45.1006 53.0461C36.4072 49.9664 26.6986 49.9384 18.0146 53.0657C17.5974 51.1922 18.6835 49.6428 20.5089 49.256H20.509Z" fill="white"/>
<path fill-rule="evenodd" clip-rule="evenodd" d="M11.6207 23.8886C11.6207 24.786 11.2443 25.6468 10.574 26.2821C9.9037 26.9175 8.99425 27.2756 8.0451 27.2779C7.09595 27.2802 6.18458 26.9265 5.51084 26.2944C4.8371 25.6623 4.45601 24.8034 4.45113 23.906C4.44625 23.0087 4.81798 22.1461 5.4848 21.5075C6.15163 20.8689 7.05911 20.5064 8.00824 20.4994C8.95736 20.4925 9.87065 20.8417 10.5478 21.4706C11.225 22.0994 11.6107 22.9564 11.6205 23.8538" fill="black"/>
<path fill-rule="evenodd" clip-rule="evenodd" d="M59.549 24.0576C59.549 24.9548 59.1727 25.8154 58.5026 26.4508C57.8326 27.0861 56.9234 27.4443 55.9744 27.4469C55.0255 27.4494 54.1141 27.0961 53.4402 26.4644C52.7663 25.8327 52.3849 24.9742 52.3794 24.077C52.374 23.1798 52.7451 22.3172 53.4113 21.6782C54.0775 21.0393 54.9845 20.6761 55.9334 20.6684C56.8823 20.6607 57.7958 21.0091 58.4735 21.6371C59.1512 22.2652 59.5379 23.1216 59.5488 24.0188" fill="black"/>
<path fill-rule="evenodd" clip-rule="evenodd" d="M27.7399 10.6647C27.7399 11.6837 27.3149 12.6609 26.5584 13.382C25.8019 14.103 24.7756 14.5088 23.7049 14.5104C22.6342 14.5119 21.6066 14.109 20.8478 13.3901C20.089 12.6712 19.661 11.6952 19.6578 10.6763C19.6546 9.65736 20.0764 8.67888 20.8307 7.95569C21.5849 7.2325 22.6099 6.82374 23.6806 6.81915C24.7513 6.81456 25.7801 7.21452 26.5412 7.93121C27.3023 8.6479 27.7334 9.62273 27.7398 10.6416" fill="black"/>
<path fill-rule="evenodd" clip-rule="evenodd" d="M43.7379 9.69575C43.7379 10.7141 43.3135 11.6908 42.5578 12.4117C41.802 13.1327 40.7767 13.5389 39.7066 13.5414C38.6366 13.5439 37.6092 13.1423 36.8498 12.4249C36.0904 11.7075 35.661 10.7327 35.6558 9.71444C35.6506 8.69614 36.07 7.71746 36.8221 6.99305C37.5741 6.26864 38.5974 5.85766 39.6674 5.85025C40.7374 5.84283 41.7669 6.2396 42.5299 6.95351C43.293 7.66742 43.7273 8.64019 43.7377 9.65845" fill="black"/>
<path d="M25.1314 57.6429C22.7783 57.3352 20.2635 56.6401 18.375 55.7755C15.4182 54.4218 15.5802 54.7624 14.8196 48.2983C13.8768 40.2863 13.7786 39.8634 11.8013 35.2999C10.8274 33.0524 9.65304 30.3269 9.19147 29.2433C8.42592 27.446 8.26395 27.2492 7.34666 27.0022C5.97712 26.6334 4.66441 25.111 4.66441 23.8915C4.66441 21.8768 7.36063 20.0965 9.39504 20.7679C10.8919 21.2619 11.3049 21.9461 11.3352 23.9817L11.3618 25.778L14.6623 28.468C16.4776 29.9475 18.0193 31.1016 18.0883 31.0326C18.331 30.7899 21.159 19.2495 21.6272 16.5911L22.101 13.9008L21.4505 13.3746C19.7294 11.9824 19.3887 10.2451 20.5629 8.84959C22.1525 6.96052 25.2095 6.31025 26.4884 7.58916C27.7916 8.89239 27.982 11.6652 26.8761 13.2368C26.3671 13.9602 26.3672 13.9926 26.8791 15.2707C27.1652 15.985 28.3379 18.522 29.485 20.9085L31.5706 25.2475L34.1027 20.2305C35.4953 17.4712 36.8399 14.6169 37.0907 13.8876C37.511 12.6654 37.5122 12.5424 37.1056 12.3148C36.4416 11.9432 35.8509 10.6181 35.8509 9.5002C35.8509 8.71087 36.0627 8.29384 36.8777 7.4789C39.2689 5.0877 42.6488 5.61609 43.4261 8.5026C43.9466 10.4357 43.2918 12.2814 41.8144 13.0454C41.3684 13.276 41.0034 13.662 41.0034 13.9031C41.0034 14.5345 44.8555 30.6309 45.0659 30.8786C45.1628 30.9927 46.8816 29.8085 48.8854 28.2471C52.4494 25.47 52.5294 25.3846 52.5538 24.3286C52.6342 20.8531 57.5096 19.4457 59.0629 22.4495C60.1607 24.5723 58.7319 27.2814 56.5146 27.2814H55.4919L54.0326 30.4678C49.4869 40.3936 49.7689 39.4029 48.885 48.5543C48.2833 54.7841 48.5072 54.3621 45.0712 55.7429C42.7087 56.6923 40.5502 57.2632 37.8848 57.6437C35.6885 57.9572 27.5311 57.9567 25.1314 57.6429V57.6429H25.1314ZM24.5966 51.4944C26.3329 51.1662 28.4069 51.0366 31.7831 51.0453C36.7027 51.058 39.5341 51.4656 43.5797 52.7439L45.2068 53.2579L45.2937 52.2921C45.4639 50.399 44.032 49.2826 40.461 48.5244C37.1182 47.8147 26.154 47.8109 22.8339 48.5182C21.5661 48.7883 20.1017 49.2155 19.5797 49.4674C18.4733 50.0013 17.5421 51.6389 17.7879 52.6182L17.9484 53.2577L20.0522 52.6068C21.2092 52.2488 23.2542 51.7483 24.5966 51.4945V51.4944ZM19.7093 46.8859C20.5329 46.4819 21.2068 46.0636 21.2068 45.9562C21.2068 45.8488 20.5633 45.6169 19.7768 45.4409C18.5792 45.1729 18.1827 45.1895 17.3362 45.5432C16.2906 45.9801 16.0222 46.6662 16.6509 47.2949C17.1613 47.8054 18.0867 47.6816 19.7093 46.8859V46.8859ZM47.2407 47.3371C47.5812 47.107 47.4993 46.935 46.7385 46.2815C45.6544 45.3504 44.4022 45.063 43.2221 45.4743C42.1307 45.8548 42.1345 46.1342 43.2389 46.7053C44.9583 47.5944 46.4998 47.8378 47.2407 47.3371H47.2407ZM34.4212 45.3766C35.0355 44.7624 35.1072 44.5402 34.8887 43.9289C34.7467 43.5317 34.2053 42.9795 33.6856 42.7017C31.0862 41.3123 27.3369 43.056 28.6418 45.0475C29.2806 46.0226 30.0172 46.2715 31.9936 46.1806C33.4189 46.1149 33.8136 45.9842 34.4212 45.3766ZM20.9356 41.4916C22.6509 41.2555 26.739 40.9985 30.0203 40.9205C35.7782 40.7835 39.0063 41.004 46.7661 42.0641C47.3254 42.1405 47.7831 42.1451 47.7831 42.0744C47.7831 42.0036 47.5326 41.2764 47.2265 40.4582C46.6972 39.0435 46.5948 38.9426 45.1342 38.3961C39.4307 36.2622 31.0575 35.6829 23.6475 36.9097C17.9819 37.8476 15.7831 38.9408 15.7831 40.8196C15.7831 42.0796 15.9373 42.2392 16.984 42.0619C17.4421 41.9843 19.2203 41.7277 20.9356 41.4916V41.4916Z" fill="#333333" stroke="black" stroke-width="0.987802"/>
</svg>
